svg/24/filter-alt--filled.svg

<svg width="24" height="24" viewBox="0 0 24 24" fill="currentColor" xmlns="http://www.w3.org/2000/svg"><path d="M9 12.3333L3.67127 7.59666C3.24429 7.21713 3 6.67312 3 6.10185V5C3 3.89543 3.89543 3 5 3H19C20.1046 3 21 3.89543 21 5V6.10184C21 6.67312 20.7557 7.21713 20.3287 7.59666L15 12.3333V20.865C15 21.7128 14.0111 22.176 13.3598 21.6332L9.71963 18.5997C9.26365 18.2197 9 17.6568 9 17.0633V12.3333Z"/></svg>

<svg xmlns="http://www.w3.org/2000/svg" width="24" height="24" fill="currentColor" viewBox="0 0 24 24">
  <path d="M9 12.333 3.671 7.597A2 2 0 0 1 3 6.102V5a2 2 0 0 1 2-2h14a2 2 0 0 1 2 2v1.102a2 2 0 0 1-.671 1.495L15 12.333v8.532a1 1 0 0 1-1.64.768L9.72 18.6A2 2 0 0 1 9 17.063v-4.73Z"/>
</svg>
